X: 13662
T: Follow Me Up
R: reel
M: 4/4
K: Adorian
ABAG EG G2|AGAB dedB|ABAG EG G2|1 gedB BAAG:|2 gedB BA A2||
agea gedB|ABAG EG G2|agea gedB|GBdB BA A2|
agea gedB|ABAG EGGB|AGAB d3 e|gedB BA A2||

